X: 15970
T: Granuale
R: barndance
M: 4/4
K: Gmajor
dc|:(3Bcd BG cecA|(3BcB GB AGFE|DEFG ABcA|1 BAGB A3D:|2 BGAF G2 (3def||
|:gfgb afd2|ecAe dBG2|1 dggf gab2|bagb a3 (3def:|2 (3efg fe dcBA|G2 B2 G2 Bc||
|:(3ddd (3ggg bgdg|fee^d e2fe|1 d^c=cA FDBA|(3GGG (3BBB d3Bc:|2 d^c=cA FDBA|G2 B2 G2 ga||
|:bagb agfa|gee^d e2fg|agfa gfeg|fdd^c d2d=c|
BGBc def2|fee^d e2fe|d^c=cA FDBA|G2 B2 G2 ga:|

